Obsidian-SemiLight/actions/22s/media-random-albums-amarok.svg

<svg viewBox="0 0 22 22" xmlns="http://www.w3.org/2000/svg"><path d="m2 3v16h1 4v-2c-.55228 0-1 .44772-1 1h-1v-7-7h1c0 .55228.44772 1 1 1s1-.44772 1-1h4 4c0 .55228.44772 1 1 1s1-.44772 1-1h1v7h1v-8h-17zm17 8c0-3.86599-3.13401-7-7-7s-7 3.13401-7 7c.0020604 1.854914.7493049 3.583962 2 4.867188v-1.580079c-.6338492-.962115-.99867-2.09558-1-3.287109 0-3.31371 2.68629-6 6-6s6 2.68629 6 6zm-16-7h1v14h-1zm14 7v1h-1-.023438c-1.649008 0-2.976562 1.327554-2.976562 2.976562v.023438c0 1.108-.892 2-2 2h-3v1h3 .023438c1.649008 0 2.976562-1.327554 2.976562-2.976562v-.023438c0-1.108.892-2 2-2h1v1l2-1.5zm-9 1v1h3c.398899 0 .766762.118675 1.078125.318359.07572-.336861.209875-.649217.388672-.93164-.428875-.238906-.91569-.386719-1.443359-.386719h-.023438zm9 4v1h-1c-.398899 0-.766762-.118675-1.078125-.318359-.075723.336861-.209875.649217-.388672.93164.428874.238906.915687.386719 1.443359.386719h.023438 1v1l2-1.5z" fill="#4d4d4d"/></svg>

<svg xmlns="http://www.w3.org/2000/svg" viewBox="0 0 22 22">
  <defs id="defs3051">
    <style type="text/css" id="current-color-scheme">
      .ColorScheme-Text {
        color:#4d4d4d;
      }
      </style>
  </defs>
 <path 
    style="fill:currentColor;fill-opacity:1;stroke:none" 
    d="M 2 3 L 2 19 L 3 19 L 7 19 L 7 17 C 6.44772 17 6 17.44772 6 18 L 5 18 L 5 11 L 5 4 L 6 4 C 6 4.55228 6.44772 5 7 5 C 7.55228 5 8 4.55228 8 4 L 12 4 L 16 4 C 16 4.55228 16.44772 5 17 5 C 17.55228 5 18 4.55228 18 4 L 19 4 L 19 11 L 20 11 L 20 3 L 3 3 L 2 3 z M 19 11 C 19 7.13401 15.86599 4 12 4 C 8.13401 4 5 7.13401 5 11 C 5.0020604 12.854914 5.7493049 14.583962 7 15.867188 L 7 14.287109 C 6.3661508 13.324994 6.00133 12.191529 6 11 C 6 7.68629 8.68629 5 12 5 C 15.31371 5 18 7.68629 18 11 L 19 11 z M 3 4 L 4 4 L 4 18 L 3 18 L 3 4 z M 17 11 L 17 12 L 16 12 L 15.976562 12 C 14.327554 12 13 13.327554 13 14.976562 L 13 15 C 13 16.108 12.108 17 11 17 L 8 17 L 8 18 L 11 18 L 11.023438 18 C 12.672446 18 14 16.672446 14 15.023438 L 14 15 C 14 13.892 14.892 13 16 13 L 17 13 L 17 14 L 19 12.5 L 17 11 z M 8 12 L 8 13 L 11 13 C 11.398899 13 11.766762 13.118675 12.078125 13.318359 C 12.153845 12.981498 12.288 12.669142 12.466797 12.386719 C 12.037922 12.147813 11.551107 12 11.023438 12 L 11 12 L 8 12 z M 17 16 L 17 17 L 16 17 C 15.601101 17 15.233238 16.881325 14.921875 16.681641 C 14.846152 17.018502 14.712 17.330858 14.533203 17.613281 C 14.962077 17.852187 15.44889 18 15.976562 18 L 16 18 L 17 18 L 17 19 L 19 17.5 L 17 16 z "
    class="ColorScheme-Text"
    />  
</svg>
